src/rounded/icons/fi-rr-cursor.svg

<svg id="Layer_1" height="512" viewBox="0 0 24 24" width="512" xmlns="http://www.w3.org/2000/svg" data-name="Layer 1"><path d="m15.008 24a3.007 3.007 0 0 1 -2.681-1.636l-3.127-6.704-3.542 3.093a1 1 0 0 1 -1.658-.753v-15.02a3 3 0 0 1 4.989-2.246l10.7 10.238a1 1 0 0 1 -.6 1.719l-4.468.407 3.065 6.569a3 3 0 0 1 -2.678 4.333zm-5.465-10.968a1.039 1.039 0 0 1 .207.021 1 1 0 0 1 .7.556l3.675 7.876a1 1 0 0 0 1.767-.94l-3.682-7.891a1 1 0 0 1 .815-1.419l3.7-.337-9.091-8.692a.972.972 0 0 0 -1.045-.138.986.986 0 0 0 -.589.912v12.82l2.885-2.52a1 1 0 0 1 .658-.248z"/></svg>

<svg id="Layer_1" data-name="Layer 1" xmlns="http://www.w3.org/2000/svg" viewBox="0 0 24 24"><path d="M15.008,24a3.007,3.007,0,0,1-2.681-1.636L9.2,15.66,5.658,18.753A1,1,0,0,1,4,18V2.98A3,3,0,0,1,8.989.734l10.7,10.238a1,1,0,0,1-.6,1.719l-4.468.407,3.065,6.569A3,3,0,0,1,15.008,24ZM9.543,13.032a1.039,1.039,0,0,1,.207.021,1,1,0,0,1,.7.556l3.675,7.876a1,1,0,0,0,1.767-.94l-3.682-7.891a1,1,0,0,1,.815-1.419l3.7-.337L7.634,2.206a.972.972,0,0,0-1.045-.138A.986.986,0,0,0,6,2.98V15.8l2.885-2.52A1,1,0,0,1,9.543,13.032Z"/></svg>
